app/dist/common/images/wag-payment-solutions.svg

<svg height="18" viewBox="0 0 18 18" width="18" xmlns="http://www.w3.org/2000/svg"><path d="m0 0h18v18h-18z" fill="#f0f3fa"/><path d="m13 8-.44 1.57-.33-1.57h-2.47l-.4 1.57-.41-1.57h-1.38l1.04 4h1.48l.9-3.46.9 3.46h1.4l1.04-4zm-5.65 3h-3.35v-2h3.08l-.38-1h-3.7v4h4.73zm-4.35-4h5.75l-.38-1h-5.37zm10.53-1-.38 1h1.47l.38-1zm-1.96 0h-1.23l-.38 1h1.99z" fill="#00004b" fill-opacity=".87"/></svg>

<!-- by TradingView --><svg width="18" height="18" viewBox="0 0 18 18" xmlns="http://www.w3.org/2000/svg"><path fill="#F0F3FA" d="M0 0h18v18H0z"/><path d="m13 8-.44 1.57L12.23 8H9.76l-.4 1.57L8.95 8H7.57l1.04 4h1.48l.9-3.46.9 3.46h1.4l1.04-4H13ZM7.35 11H4V9h3.08L6.7 8H3v4h4.73l-.38-1ZM3 7h5.75l-.38-1H3v1Zm10.53-1-.38 1h1.47L15 6h-1.47Zm-1.96 0h-1.23l-.38 1h1.99l-.38-1Z" fill="#00004B" fill-opacity=".87"/></svg>
